images/optimaal-digitaal/icon-kannibaalsturing.svg

<?xml version="1.0" encoding="UTF-8"?>
<svg width="68px" height="98px" viewBox="0 0 68 98" version="1.1" xmlns="http://www.w3.org/2000/svg" xmlns:xlink="http://www.w3.org/1999/xlink">
    <!-- Generator: Sketch 61.2 (89653) - https://sketch.com -->
    <title>icon-kannibaalsturing</title>
    <desc>Created with Sketch.</desc>
    <g id="Page-1" stroke="none" stroke-width="1" fill="none" fill-rule="evenodd">
        <g id="Artboard" transform="translate(-21.000000, -553.000000)" fill="#FFFFFF">
            <g id="icon-kannibaalsturing" transform="translate(21.000000, 553.000000)">
                <polygon id="Fill-8" points="20.3243 44.3883 31.6403 44.0393 15.2103 16.8283 0.5983 44.9963 11.9143 44.6473 12.5503 64.0193 20.8353 59.9353"></polygon>
                <path d="M67.7803,27.4191 L51.3503,0.2091 L36.7373,28.3761 L48.0543,28.0271 L48.5873,44.2541 C48.7503,49.2351 45.9373,53.9371 41.1973,56.5541 L22.1033,68.8611 C16.4143,72.0501 13.0023,77.8001 13.2013,83.8671 L13.5383,94.1031 C13.6073,96.2121 15.5503,97.8711 17.8683,97.7991 C20.1873,97.7281 22.0173,95.9531 21.9483,93.8441 L21.6123,83.6081 C21.5023,80.2521 23.3983,77.0821 26.6083,75.3081 L45.7003,63.0021 C52.9213,58.9681 57.2503,51.6851 56.9973,43.9951 L56.4643,27.7681 L67.7803,27.4191 Z" id="Fill-10"></path>
            </g>
        </g>
    </g>
</svg>

<svg height="120" viewBox="0 0 120 120" width="120" xmlns="http://www.w3.org/2000/svg"><g fill="#fff" fill-rule="evenodd" transform="translate(26 11)"><path d="m20.3243 44.3883 11.316-.349-16.43-27.211-14.612 28.168 11.316-.349.636 19.372 8.285-4.084z"/><path d="m67.7803 27.4191-16.43-27.21-14.613 28.167 11.317-.349.533 16.227c.163 4.981-2.65 9.683-7.39 12.3l-19.094 12.307c-5.689 3.189-9.101 8.939-8.902 15.006l.337 10.236c.069 2.109 2.012 3.768 4.33 3.696 2.319-.071 4.149-1.846 4.08-3.955l-.336-10.236c-.11-3.356 1.786-6.526 4.996-8.3l19.092-12.306c7.221-4.034 11.55-11.317 11.297-19.007l-.533-16.227z"/></g></svg>
